X:1
T:Managua, 98.98 D
T:Managua, 98.98 D
T:John Robson Sweney, 1893
T:Public Domain Courtesy of the Cyber Hymnal™
C:John Robson Sweney, 1893
Z:Public Domain
Z:Courtesy of the Cyber Hymnal™
%%score 1 ( 2 3 )
L:1/8
Q:1/4=105
M:4/4
K:Eb
V:1 treble 
V:2 bass 
V:3 bass 
V:1
 [EG]>[FA] | [GB]2 [GB]>[GB] [GB]2 [Ge]2 | [GB]4 [EG]2 [EB]2 | [DA]2 [Ad]>[Ac] [GB]2 ([FA]>[FA]) | %4
 [EG]6 [EG][FA] | [GB]2 [GB]>[GB] [Ge]2 [Bd]>[Ac] | [GB]4 [EG]2 [EB]2 | %7
 [DB]2 ([FA]>[EG]) [DF]2 [EG]>[B,F] | [B,E]6 [EB]2 | [DA]2 [FA]>[EG] [EG]2 [Ac]>[Ad] | %10
 [Ge]4 [GB]2 [Ge]2 | [Ad]2 [Ac]>[GB] [FA]2 [GB]>[FA] | [EG]6 [EG][FA] | %13
 [GB]2 [GB]>[GB] [Ge]2 [Ge]>[Ge] | [Ae]4 [Ac]2 [Ec]2 | [EB]2 [DA]>[EG] [DF]2 [EG]>[B,F] | [B,E]6 |] %17
V:2
 [E,B,]>[E,B,] | [E,E]2 [E,E]>[E,E] [E,E]2 [E,B,]2 | [E,E]4 [E,B,]2 [E,G,]2 | %3
 [B,,F,]2 [B,,B,]>[B,,B,] [B,,B,]2 ([B,,B,]>[B,,B,]) | [E,B,]6 [E,B,]2 | %5
 [E,E]2 [E,E]>[E,E] [E,B,]2 [E,C]>[E,D] | [E,E]4 [E,B,]2 [E,G,]2 | %7
 [B,,F,]2 ([B,,B,]>[B,,B,]) [B,,B,]2 [B,,B,]>[B,,B,] | [E,G,]6 [E,G,]2 | %9
 [B,,F,]2 [B,,B,]>[B,,B,] [B,,B,]2 [B,,B,]>[B,,B,] | [E,B,]4 [E,E]2 [E,B,]2 | %11
 B,2 B,>B, B,2 [B,,B,]>[B,,B,] | [E,B,]6 [E,B,]2 | [E,E]2 [E,E]>[E,E] [E,_D]2 [E,D]>[E,D] | %14
 [A,C]4 [A,E]2 [A,,A,]2 | [B,,G,]2 [B,,F,]>[B,,B,] [B,,B,]2 [B,,B,]>[B,,A,] | [E,G,]6 |] %17
V:3
 x2 | x8 | x8 | x8 | x8 | x8 | x8 | x8 | x8 | x8 | x8 | B,2 B,>B, B,2 x2 | x8 | x8 | x8 | x8 | %16
 x6 |] %17

